svgs/duotone/chart-tree-map.svg

<svg xmlns="http://www.w3.org/2000/svg" viewBox="0 0 512 512"><!--! Font Awesome Pro 6.4.0 by @fontawesome - https://fontawesome.com License - https://fontawesome.com/license (Commercial License) Copyright 2023 Fonticons, Inc. --><defs><style>.fa-secondary{opacity:.4}</style></defs><path class="fa-primary" d="M0 80C0 53.5 21.5 32 48 32H176c26.5 0 48 21.5 48 48V192c0 26.5-21.5 48-48 48H48c-26.5 0-48-21.5-48-48V80zm256 0c0-26.5 21.5-48 48-48H464c26.5 0 48 21.5 48 48v32c0 26.5-21.5 48-48 48H304c-26.5 0-48-21.5-48-48V80zm48 272H464c26.5 0 48 21.5 48 48v32c0 26.5-21.5 48-48 48H304c-26.5 0-48-21.5-48-48V400c0-26.5 21.5-48 48-48z"/><path class="fa-secondary" d="M304 192c-26.5 0-48 21.5-48 48v32c0 26.5 21.5 48 48 48H464c26.5 0 48-21.5 48-48V240c0-26.5-21.5-48-48-48H304zM48 272c-26.5 0-48 21.5-48 48V432c0 26.5 21.5 48 48 48H176c26.5 0 48-21.5 48-48V320c0-26.5-21.5-48-48-48H48z"/></svg>

<svg xmlns="http://www.w3.org/2000/svg" viewBox="0 0 512 512"><!--! Font Awesome Pro 6.3.0 by @fontawesome - https://fontawesome.com License - https://fontawesome.com/license (Commercial License) Copyright 2023 Fonticons, Inc. --><defs><style>.fa-secondary{opacity:.4}</style></defs><path class="fa-primary" d="M0 80C0 53.49 21.49 32 48 32H176C202.5 32 224 53.49 224 80V192C224 218.5 202.5 240 176 240H48C21.49 240 0 218.5 0 192V80zM256 80C256 53.49 277.5 32 304 32H464C490.5 32 512 53.49 512 80V112C512 138.5 490.5 160 464 160H304C277.5 160 256 138.5 256 112V80zM464 352C490.5 352 512 373.5 512 400V432C512 458.5 490.5 480 464 480H304C277.5 480 256 458.5 256 432V400C256 373.5 277.5 352 304 352H464z"/><path class="fa-secondary" d="M464 192C490.5 192 512 213.5 512 240V272C512 298.5 490.5 320 464 320H304C277.5 320 256 298.5 256 272V240C256 213.5 277.5 192 304 192H464zM176 272C202.5 272 224 293.5 224 320V432C224 458.5 202.5 480 176 480H48C21.49 480 0 458.5 0 432V320C0 293.5 21.49 272 48 272H176z"/></svg>
